images/garbage.svg

<svg enable-background="new 0 0 512 512" height="512" viewBox="0 0 512 512" width="512" xmlns="http://www.w3.org/2000/svg"><g fill="#9ba3af"><path d="m381.621 65.523h-53.943v-11.519c0-29.778-24.227-54.004-54.005-54.004h-35.346c-29.778 0-54.005 24.226-54.005 54.004v11.519h-53.943c-34.76 0-63.04 28.28-63.04 63.04v15.975h377.321v-15.976c0-34.759-28.28-63.039-63.039-63.039zm-84.36 0h-82.521v-11.519c0-13.005 10.581-23.587 23.588-23.587h35.346c13.006 0 23.588 10.581 23.588 23.587v11.519z"/><path d="m88.452 174.955v306.112c0 17.056 13.877 30.933 30.934 30.933h273.227c17.057 0 30.934-13.877 30.934-30.933v-306.112zm109.08 291.205h-30.417v-245.365h30.417zm73.676 0h-30.417v-245.365h30.417zm73.678 0h-30.417v-245.365h30.417z"/></g></svg>

<?xml version="1.0"?>
<svg xmlns="http://www.w3.org/2000/svg" xmlns:xlink="http://www.w3.org/1999/xlink" version="1.1" id="Layer_1" x="0px" y="0px" viewBox="0 0 512 512" style="enable-background:new 0 0 512 512;" xml:space="preserve" width="512px" height="512px" class=""><g><g>
	<g>
		<path d="M381.621,65.523h-53.943V54.004C327.678,24.226,303.451,0,273.673,0h-35.346c-29.778,0-54.005,24.226-54.005,54.004    v11.519h-53.943c-34.76,0-63.04,28.28-63.04,63.04v15.975H444.66v-15.976C444.66,93.803,416.38,65.523,381.621,65.523z     M297.261,65.523H214.74V54.004c0-13.005,10.581-23.587,23.588-23.587h35.346c13.006,0,23.588,10.581,23.588,23.587V65.523z" data-original="#000000" class="active-path" data-old_color="#9ba3af" fill="#9ba3af"/>
	</g>
</g><g>
	<g>
		<path d="M88.452,174.955v306.112c0,17.056,13.877,30.933,30.934,30.933h273.227c17.057,0,30.934-13.877,30.934-30.933V174.955    H88.452z M197.532,466.16h-30.417V220.795h30.417V466.16z M271.208,466.16h-30.417V220.795h30.417V466.16z M344.886,466.16    h-30.417V220.795h30.417V466.16z" data-original="#000000" class="active-path" data-old_color="#9ba3af" fill="#9ba3af"/>
	</g>
</g></g> </svg>
